client/src/assets/map-objects/128x128_star_scannable_binary.svg

<svg xmlns="http://www.w3.org/2000/svg" width="128" height="128" viewBox="0 0 33.867 33.867"><path d="m18.218 290.344-4.933-.533-2.002 4.51-2.002-4.51-4.933.533 2.931-3.978-2.931-3.977 4.933.533 2.002-4.51 2.002 4.51 4.933-.533-2.931 3.977ZM30.192 279.567l-5.29-.568-2.146 4.809-2.147-4.809-5.289.568 3.143-4.242-3.143-4.241 5.289.568 2.147-4.81 2.146 4.81 5.29-.568-3.143 4.241Z" style="fill:#fff;fill-opacity:.974619;stroke:none;stroke-width:3.425;stroke-linecap:square;stroke-linejoin:miter;stroke-miterlimit:1.5;stroke-dasharray:82.2,82.2;stroke-dashoffset:0;stroke-opacity:1;paint-order:normal" transform="matrix(.72928 0 0 .72928 4.584 -187.313)"/></svg>

<svg id="svg3882" version="1.1" viewBox="0 0 33.866666 33.866668" height="128" width="128" xmlns="http://www.w3.org/2000/svg">
  <defs id="defs3876"></defs>
  <g transform="translate(0,-263.13332)" id="layer1">
    <g id="layer1-3" transform="matrix(0.72927803,0,0,0.72927803,4.5842259,75.820177)">
      <path style="fill: rgb(255, 255, 255); fill-opacity: 0.974619; stroke: none; stroke-width: 3.425; stroke-linecap: square; stroke-linejoin: miter; stroke-miterlimit: 1.5; stroke-dasharray: 82.2, 82.2; stroke-dashoffset: 0; stroke-opacity: 1; paint-order: normal;" id="path2870" d="M 18.218 290.344 L 13.285 289.811 L 11.283 294.321 L 9.281 289.811 L 4.348 290.344 L 7.279 286.366 L 4.348 282.389 L 9.281 282.922 L 11.283 278.412 L 13.285 282.922 L 18.218 282.389 L 15.287 286.366 Z"></path>
      <path style="fill: rgb(255, 255, 255); fill-opacity: 0.974619; stroke: none; stroke-width: 3.425; stroke-linecap: square; stroke-linejoin: miter; stroke-miterlimit: 1.5; stroke-dasharray: 82.2, 82.2; stroke-dashoffset: 0; stroke-opacity: 1; paint-order: normal;" id="path-1" d="M 30.192 279.567 L 24.902 278.999 L 22.756 283.808 L 20.609 278.999 L 15.32 279.567 L 18.463 275.325 L 15.32 271.084 L 20.609 271.652 L 22.756 266.842 L 24.902 271.652 L 30.192 271.084 L 27.049 275.325 Z"></path>
    </g>
  </g>
</svg>
